X: 28983
T: Nasty Nell
R: jig
M: 6/8
K: Bminor
|:~B2 A BFF|~B2 A Bdc|~B2 A BFB|GB^G ABd|
~B2 A BFF|~B2 A Bde|fag fed|1 edf edc:|2 ede fga||
|:bBB bBa|BfB edc|~B2 B bBa|fed e3|bBB bBa|
BfB edc|1 def edc|B3 Bdf:|2 def ^gag|fed cBA||

